X: 05041
T: JOE GILLIS' JIG
C: Bob McQuillen 1 June 81
B: Bob's Note Book 5 #41
%R: jig
Z: 2021 John Chambers <jc:trillian.mit.edu>
M: 6/8
L: 1/8
K: G
E \
| DGG GBG | AGE E2D | DEG GBd | e2f g2e |\
| dBG GBG | AGE EDE | GAB AGE | DGG G2 :|
|: B \
| d2d ede | dBG ABc | ded d2B | A2G EGB |\
| dBd ega | bag ede | g2G GAB | A3  G2 :|
%%begintext align
%% You'll find Joe
%% at every NEFFA Festival. He plays great
%% accordion and piano, and I hope he
%% likes this tune!
%%endtext

%%sep 1 1 500

%%sep 1 1 500

